TTree/tbits3.svg

<svg xmlns="http://www.w3.org/2000/svg" viewBox="0 0 1200 800" preserveAspectRatio="none" width="1200" height="800">
 <path d="M0,0H1200V800H0Z" style="fill: white;"></path>
 <g>
  <g transform="translate(120,80)">
   <path d="M0,0H960V640H0Z" style="fill: white; stroke: black; stroke-width: 1;"></path>
   <svg x="0" y="0" overflow="hidden" width="960" height="640" viewBox="0 0 960 640">
    <g>
     <path d="M0,33h107v1h106v-4h107v4h320v3h213v603h107" style="stroke-linejoin: miter; stroke: #00009a; stroke-width: 1; fill: none;"></path>
    </g>
   </svg>
   <g>
    <g transform="translate(0,640)">
     <path d="M0,0h960M0,-24v24m27,-24v24m26,-24v24m27,-24v24m27,-24v24m26,-24v24m27,-24v24m27,-24v24m26,-24v24m27,-24v24m27,-24v24m26,-24v24m27,-24v24m27,-24v24m26,-24v24m27,-24v24m27,-24v24m26,-24v24m27,-24v24m27,-24v24m26,-24v24m27,-24v24m27,-24v24m26,-24v24m27,-24v24m27,-24v24m26,-24v24m27,-24v24m27,-24v24m26,-24v24m27,-24v24m27,-24v24m26,-24v24m27,-24v24m27,-24v24m26,-24v24m27,-12v12" style="stroke: black; stroke-width: 1;"></path>
     <g font-family="Arial" font-size="20" space="preserve" fill="black" text-anchor="middle">
      <text dy=".8em" transform="translate(14,6)">
       0
      </text>
      <text dy=".8em" transform="translate(40,6)">
       2
      </text>
      <text dy=".8em" transform="translate(67,6)">
       4
      </text>
      <text dy=".8em" transform="translate(94,6)">
       6
      </text>
      <text dy=".8em" transform="translate(120,6)">
       8
      </text>
      <text dy=".8em" transform="translate(147,6)">
       10
      </text>
      <text dy=".8em" transform="translate(174,6)">
       12
      </text>
      <text dy=".8em" transform="translate(200,6)">
       14
      </text>
      <text dy=".8em" transform="translate(227,6)">
       16
      </text>
      <text dy=".8em" transform="translate(254,6)">
       18
      </text>
      <text dy=".8em" transform="translate(280,6)">
       20
      </text>
      <text dy=".8em" transform="translate(307,6)">
       22
      </text>
      <text dy=".8em" transform="translate(334,6)">
       24
      </text>
      <text dy=".8em" transform="translate(360,6)">
       26
      </text>
      <text dy=".8em" transform="translate(387,6)">
       28
      </text>
      <text dy=".8em" transform="translate(414,6)">
       30
      </text>
      <text dy=".8em" transform="translate(440,6)">
       32
      </text>
      <text dy=".8em" transform="translate(467,6)">
       34
      </text>
      <text dy=".8em" transform="translate(494,6)">
       36
      </text>
      <text dy=".8em" transform="translate(520,6)">
       38
      </text>
      <text dy=".8em" transform="translate(547,6)">
       40
      </text>
      <text dy=".8em" transform="translate(574,6)">
       42
      </text>
      <text dy=".8em" transform="translate(600,6)">
       44
      </text>
      <text dy=".8em" transform="translate(627,6)">
       46
      </text>
      <text dy=".8em" transform="translate(654,6)">
       48
      </text>
      <text dy=".8em" transform="translate(680,6)">
       50
      </text>
      <text dy=".8em" transform="translate(707,6)">
       52
      </text>
      <text dy=".8em" transform="translate(734,6)">
       54
      </text>
      <text dy=".8em" transform="translate(760,6)">
       56
      </text>
      <text dy=".8em" transform="translate(787,6)">
       58
      </text>
      <text dy=".8em" transform="translate(814,6)">
       60
      </text>
      <text dy=".8em" transform="translate(840,6)">
       62
      </text>
      <text dy=".8em" transform="translate(867,6)">
       64
      </text>
      <text dy=".8em" transform="translate(894,6)">
       66
      </text>
      <text dy=".8em" transform="translate(920,6)">
       68
      </text>
      <text dy=".8em" transform="translate(947,6)">
       70
      </text>
     </g>
     <g font-family="Arial" font-size="28" space="preserve" transform="translate(960,45)">
      <text fill="black" text-anchor="end" dy=".4em">
       event.fTracks[].fTriggerBits
      </text>
     </g>
    </g>
    <g>
     <path d="M0,0v640M36,640h-36m18,-15h-18m18,-16h-18m18,-15h-18m18,-15h-18m36,-15h-36m18,-16h-18m18,-15h-18m18,-15h-18m18,-16h-18m36,-15h-36m18,-15h-18m18,-16h-18m18,-15h-18m18,-15h-18m36,-15h-36m18,-16h-18m18,-15h-18m18,-15h-18m18,-16h-18m36,-15h-36m18,-15h-18m18,-15h-18m18,-16h-18m18,-15h-18m36,-15h-36m18,-16h-18m18,-15h-18m18,-15h-18m18,-15h-18m36,-16h-36m18,-15h-18m18,-15h-18m18,-16h-18m18,-15h-18m36,-15h-36m18,-16h-18m18,-15h-18m18,-15h-18m18,-15h-18m36,-16h-36m18,-15h-18" style="stroke: black; stroke-width: 1;"></path>
     <g font-family="Arial" font-size="28" space="preserve">
      <text fill="black" text-anchor="end" dy=".4em" transform="translate(-4,640)">
       0
      </text>
      <text fill="black" text-anchor="end" dy=".4em" transform="translate(-4,564)">
       5
      </text>
      <text fill="black" text-anchor="end" dy=".4em" transform="translate(-4,487)">
       10
      </text>
      <text fill="black" text-anchor="end" dy=".4em" transform="translate(-4,411)">
       15
      </text>
      <text fill="black" text-anchor="end" dy=".4em" transform="translate(-4,334)">
       20
      </text>
      <text fill="black" text-anchor="end" dy=".4em" transform="translate(-4,258)">
       25
      </text>
      <text fill="black" text-anchor="end" dy=".4em" transform="translate(-4,181)">
       30
      </text>
      <text fill="black" text-anchor="end" dy=".4em" transform="translate(-4,105)">
       35
      </text>
      <text fill="black" text-anchor="end" dy=".4em" transform="translate(-4,28)">
       40
      </text>
      <g transform="translate(5,-10)">
       <text fill="black" font-size="28">
        ×10
       </text>
       <text fill="black" font-size="17" transform="translate(46,-14)">
        3
       </text>
      </g>
     </g>
    </g>
   </g>
  </g>
  <g transform="translate(120,4)" font-family="Arial" font-size="35" space="preserve">
   <text fill="black" text-anchor="middle" dy=".8em" transform="translate(480)">
    drawing 'event.fTracks[].fTriggerBits' from T
   </text>
  </g>
  <g transform="translate(936,52)" font-family="Arial" font-size="21" space="preserve" fill="black">
   <path d="M0,0H240V128H0Z" style="fill: white; stroke: black; stroke-width: 1;"></path>
   <text text-anchor="start" dy=".4em" transform="translate(12,13)">
    Entries
   </text>
   <text text-anchor="end" dy=".4em" transform="translate(228,13)">
    2535136
   </text>
   <text text-anchor="start" dy=".4em" transform="translate(12,38)">
    Mean
   </text>
   <text text-anchor="end" dy=".4em" transform="translate(228,38)">
    31.95
   </text>
   <text text-anchor="start" dy=".4em" transform="translate(12,64)">
    Std Dev
   </text>
   <text text-anchor="end" dy=".4em" transform="translate(228,64)">
    18.46
   </text>
   <text text-anchor="start" dy=".4em" transform="translate(12,90)">
    Underflow
   </text>
   <text text-anchor="end" dy=".4em" transform="translate(228,90)">
    0
   </text>
   <text text-anchor="start" dy=".4em" transform="translate(12,115)">
    Overflow
   </text>
   <text text-anchor="end" dy=".4em" transform="translate(228,115)">
    0
   </text>
  </g>
 </g>
</svg>

<svg xmlns="http://www.w3.org/2000/svg" viewBox="0 0 1200 800" preserveAspectRatio="none" width="1200" height="800">
 <path d="M0,0H1200V800H0Z" style="fill: white;"></path>
 <g>
  <g transform="translate(120,80)">
   <path d="M0,0H960V640H0Z" style="fill: white; stroke: black; stroke-width: 1;"></path>
   <svg x="0" y="0" overflow="hidden" width="960" height="640" viewBox="0 0 960 640">
    <g>
     <path d="M0,33h107v1h106v-4h107v4h320v3h213v603h107" style="stroke-linejoin: miter; stroke: #00009a; stroke-width: 1; fill: none;"></path>
    </g>
   </svg>
   <g>
    <g transform="translate(0,640)">
     <path d="M0,0h960M0,-24V0M27,-24V0M53,-24V0M80,-24V0M107,-24V0M133,-24V0M160,-24V0M187,-24V0M213,-24V0M240,-24V0M267,-24V0M293,-24V0M320,-24V0M347,-24V0M373,-24V0M400,-24V0M427,-24V0M453,-24V0M480,-24V0M507,-24V0M533,-24V0M560,-24V0M587,-24V0M613,-24V0M640,-24V0M667,-24V0M693,-24V0M720,-24V0M747,-24V0M773,-24V0M800,-24V0M827,-24V0M853,-24V0M880,-24V0M907,-24V0M933,-24V0M960,-12V0" style="stroke: black; stroke-width: 1;"></path>
     <g font-family="Arial" font-size="20" space="preserve" fill="black" text-anchor="middle">
      <text dy=".8em" transform="translate(14,6)">
       0
      </text>
      <text dy=".8em" transform="translate(40,6)">
       2
      </text>
      <text dy=".8em" transform="translate(67,6)">
       4
      </text>
      <text dy=".8em" transform="translate(94,6)">
       6
      </text>
      <text dy=".8em" transform="translate(120,6)">
       8
      </text>
      <text dy=".8em" transform="translate(147,6)">
       10
      </text>
      <text dy=".8em" transform="translate(174,6)">
       12
      </text>
      <text dy=".8em" transform="translate(200,6)">
       14
      </text>
      <text dy=".8em" transform="translate(227,6)">
       16
      </text>
      <text dy=".8em" transform="translate(254,6)">
       18
      </text>
      <text dy=".8em" transform="translate(280,6)">
       20
      </text>
      <text dy=".8em" transform="translate(307,6)">
       22
      </text>
      <text dy=".8em" transform="translate(334,6)">
       24
      </text>
      <text dy=".8em" transform="translate(360,6)">
       26
      </text>
      <text dy=".8em" transform="translate(387,6)">
       28
      </text>
      <text dy=".8em" transform="translate(414,6)">
       30
      </text>
      <text dy=".8em" transform="translate(440,6)">
       32
      </text>
      <text dy=".8em" transform="translate(467,6)">
       34
      </text>
      <text dy=".8em" transform="translate(494,6)">
       36
      </text>
      <text dy=".8em" transform="translate(520,6)">
       38
      </text>
      <text dy=".8em" transform="translate(547,6)">
       40
      </text>
      <text dy=".8em" transform="translate(574,6)">
       42
      </text>
      <text dy=".8em" transform="translate(600,6)">
       44
      </text>
      <text dy=".8em" transform="translate(627,6)">
       46
      </text>
      <text dy=".8em" transform="translate(654,6)">
       48
      </text>
      <text dy=".8em" transform="translate(680,6)">
       50
      </text>
      <text dy=".8em" transform="translate(707,6)">
       52
      </text>
      <text dy=".8em" transform="translate(734,6)">
       54
      </text>
      <text dy=".8em" transform="translate(760,6)">
       56
      </text>
      <text dy=".8em" transform="translate(787,6)">
       58
      </text>
      <text dy=".8em" transform="translate(814,6)">
       60
      </text>
      <text dy=".8em" transform="translate(840,6)">
       62
      </text>
      <text dy=".8em" transform="translate(867,6)">
       64
      </text>
      <text dy=".8em" transform="translate(894,6)">
       66
      </text>
      <text dy=".8em" transform="translate(920,6)">
       68
      </text>
      <text dy=".8em" transform="translate(947,6)">
       70
      </text>
     </g>
     <g font-family="Arial" font-size="28" space="preserve" transform="translate(960,45)">
      <text fill="black" text-anchor="end" dy=".4em">
       event.fTracks[].fTriggerBits
      </text>
     </g>
    </g>
    <g>
     <path d="M0,0v640M36,640H0M18,625H0M18,609H0M18,594H0M18,579H0M36,564H0M18,548H0M18,533H0M18,518H0M18,502H0M36,487H0M18,472H0M18,456H0M18,441H0M18,426H0M36,411H0M18,395H0M18,380H0M18,365H0M18,349H0M36,334H0M18,319H0M18,304H0M18,288H0M18,273H0M36,258H0M18,242H0M18,227H0M18,212H0M18,197H0M36,181H0M18,166H0M18,151H0M18,135H0M18,120H0M36,105H0M18,89H0M18,74H0M18,59H0M18,44H0M36,28H0M18,13H0" style="stroke: black; stroke-width: 1;"></path>
     <g font-family="Arial" font-size="28" space="preserve">
      <text fill="black" text-anchor="end" dy=".4em" transform="translate(-4,640)">
       0
      </text>
      <text fill="black" text-anchor="end" dy=".4em" transform="translate(-4,564)">
       5
      </text>
      <text fill="black" text-anchor="end" dy=".4em" transform="translate(-4,487)">
       10
      </text>
      <text fill="black" text-anchor="end" dy=".4em" transform="translate(-4,411)">
       15
      </text>
      <text fill="black" text-anchor="end" dy=".4em" transform="translate(-4,334)">
       20
      </text>
      <text fill="black" text-anchor="end" dy=".4em" transform="translate(-4,258)">
       25
      </text>
      <text fill="black" text-anchor="end" dy=".4em" transform="translate(-4,181)">
       30
      </text>
      <text fill="black" text-anchor="end" dy=".4em" transform="translate(-4,105)">
       35
      </text>
      <text fill="black" text-anchor="end" dy=".4em" transform="translate(-4,28)">
       40
      </text>
      <g transform="translate(5,-10)">
       <text fill="black" font-size="28">
        ×10
       </text>
       <text fill="black" font-size="17" transform="translate(46,-14)">
        3
       </text>
      </g>
     </g>
    </g>
   </g>
  </g>
  <g transform="translate(120,4)" font-family="Arial" font-size="35" space="preserve">
   <text fill="black" text-anchor="middle" dy=".8em" transform="translate(480)">
    drawing 'event.fTracks[].fTriggerBits' from T
   </text>
  </g>
  <g transform="translate(936,52)" font-family="Arial" font-size="21" space="preserve" fill="black">
   <path d="M0,0H240V128H0Z" style="fill: white; stroke: black; stroke-width: 1;"></path>
   <text text-anchor="start" dy=".4em" transform="translate(12,13)">
    Entries
   </text>
   <text text-anchor="end" dy=".4em" transform="translate(228,13)">
    2535136
   </text>
   <text text-anchor="start" dy=".4em" transform="translate(12,38)">
    Mean
   </text>
   <text text-anchor="end" dy=".4em" transform="translate(228,38)">
    31.95
   </text>
   <text text-anchor="start" dy=".4em" transform="translate(12,64)">
    Std Dev
   </text>
   <text text-anchor="end" dy=".4em" transform="translate(228,64)">
    18.46
   </text>
   <text text-anchor="start" dy=".4em" transform="translate(12,90)">
    Underflow
   </text>
   <text text-anchor="end" dy=".4em" transform="translate(228,90)">
    0
   </text>
   <text text-anchor="start" dy=".4em" transform="translate(12,115)">
    Overflow
   </text>
   <text text-anchor="end" dy=".4em" transform="translate(228,115)">
    0
   </text>
  </g>
 </g>
</svg>
